drivers/opener/assets/icon.svg

<?xml version="1.0" encoding="UTF-8" standalone="no"?>
<svg
   xmlns:dc="http://purl.org/dc/elements/1.1/"
   xmlns:cc="http://creativecommons.org/ns#"
   xmlns:rdf="http://www.w3.org/1999/02/22-rdf-syntax-ns#"
   xmlns:svg="http://www.w3.org/2000/svg"
   xmlns="http://www.w3.org/2000/svg"
   xmlns:sodipodi="http://sodipodi.sourceforge.net/DTD/sodipodi-0.dtd"
   xmlns:inkscape="http://www.inkscape.org/namespaces/inkscape"
   inkscape:export-ydpi="93"
   inkscape:export-xdpi="93"
   inkscape:export-filename="C:\Users\pfreg\Documents\GitHub\nuki.homey\drivers\opener\assets\icon.png"
   inkscape:version="1.0 (4035a4fb49, 2020-05-01)"
   height="412"
   width="412"
   sodipodi:docname="icon.svg"
   viewBox="0 0 412.00001 412"
   y="0px"
   x="0px"
   id="Layer_1"
   version="1.1">
  <metadata
     id="metadata988">
    <rdf:RDF>
      <cc:Work
         rdf:about="">
        <dc:format>image/svg+xml</dc:format>
        <dc:type
           rdf:resource="http://purl.org/dc/dcmitype/StillImage" />
        <dc:title></dc:title>
      </cc:Work>
    </rdf:RDF>
  </metadata>
  <sodipodi:namedview
     inkscape:current-layer="Layer_1"
     inkscape:window-maximized="1"
     inkscape:window-y="-8"
     inkscape:window-x="-8"
     inkscape:cy="197.35712"
     inkscape:cx="93.932461"
     inkscape:zoom="1.3277551"
     showgrid="false"
     id="namedview986"
     inkscape:window-height="1027"
     inkscape:window-width="1920"
     inkscape:pageshadow="2"
     inkscape:pageopacity="0"
     guidetolerance="10"
     gridtolerance="10"
     objecttolerance="10"
     borderopacity="1"
     bordercolor="#666666"
     pagecolor="#ffffff" />
  <defs
     id="defs927">
    <inkscape:perspective
       id="perspective1665"
       inkscape:persp3d-origin="205.5 : 138 : 1"
       inkscape:vp_z="411.00001 : 206.5 : 1"
       inkscape:vp_y="0 : 1000 : 0"
       inkscape:vp_x="0 : 206.5 : 1"
       sodipodi:type="inkscape:persp3d" />
  </defs>
  <style
     id="style929"
     type="text/css">
    .st0{fill:#CCCCCC;}
  </style>
  <g
     style="fill:#000000;fill-opacity:1"
     transform="matrix(1.5348837,0,0,1.5348837,45.641863,29.755816)"
     id="g945" />
  <ellipse
     ry="5.3721061"
     rx="5.3704085"
     class="st0"
     cx="205.92331"
     cy="80.929138"
     style="fill:#000000;fill-opacity:1;stroke-width:1.53464"
     id="circle941" />
  <g
     style="fill:#000000;fill-opacity:1"
     transform="matrix(1.5344025,0,0,1.5348875,48.670235,28.498779)"
     id="g975">
    <g
       style="fill:#000000;fill-opacity:1"
       id="g949" />
    <g
       style="fill:#000000;fill-opacity:1"
       id="g953" />
    <g
       style="fill:#000000;fill-opacity:1"
       id="g957" />
    <g
       style="fill:#000000;fill-opacity:1"
       id="g961" />
    <g
       style="fill:#000000;fill-opacity:1"
       id="g965" />
    <g
       style="fill:#000000;fill-opacity:1"
       id="g969" />
    <g
       style="fill:#000000;fill-opacity:1"
       id="g973">
      <path
         d="M 142.3,215.1 V 229 h 6.9 v -13.9 z m -13.9,0 V 229 h 6.9 v -13.9 z m -13.9,0 V 229 h 6.9 v -13.9 z m -13.9,0 V 229 h 7 v -13.9 z m -13.9,0 V 229 h 7 v -13.9 z m -13.8,0 V 229 h 6.9 v -13.9 z m -13.9,0 V 229 h 6.9 v -13.9 z m -7,-6.9 v 6.9 h 104.1 v -6.9 z"
         style="fill:#000000;fill-opacity:1"
         id="polygon971" />
    </g>
  </g>
  <g
     style="fill:#000000;fill-opacity:1;stroke:none;stroke-width:0;stroke-miterlimit:100;stroke-dasharray:none"
     transform="matrix(1.5344025,0,0,1.5348875,46.192013,29.817384)"
     id="g981">
    <path
       class="st0"
       d="m 77,173.6 c 0,-0.1 0.1,-0.4 0.4,-0.4 H 78 l 8,7.7 v -7.1 c 0,-0.1 0.1,-0.4 0.4,-0.4 h 2.4 c 0.1,0 0.4,0.1 0.4,0.4 v 13.4 c 0,0.1 -0.1,0.4 -0.4,0.4 h -0.4 c 0,0 -0.3,0 -0.3,-0.1 l -7.8,-8 v 7.4 c 0,0.1 -0.1,0.4 -0.4,0.4 h -2.4 c -0.1,0 -0.4,-0.1 -0.4,-0.4 v -13.3 z m 51.2,0.1 c 0,-0.1 0.1,-0.4 0.4,-0.4 h 2.4 c 0.1,0 0.4,0.1 0.4,0.4 V 187 c 0,0.1 -0.1,0.4 -0.4,0.4 h -2.4 c -0.1,0 -0.4,-0.1 -0.4,-0.4 z m -16.1,0.1 c 0,-0.3 0.1,-0.4 0.4,-0.4 h 2.4 c 0.3,0 0.4,0.3 0.4,0.4 v 5.3 l 4.5,-5.6 c 0.1,-0.1 0.3,-0.1 0.4,-0.1 h 2.5 c 0.4,0 0.6,0.4 0.4,0.7 l -4.6,5.9 5,6.6 c 0.3,0.3 0,0.7 -0.4,0.7 h -2.8 c -0.1,0 -0.3,-0.1 -0.4,-0.1 l -4.6,-6.3 v 6 c 0,0.3 -0.3,0.4 -0.4,0.4 h -2.4 c -0.3,0 -0.4,-0.3 -0.4,-0.4 z m -17.2,-0.1 c 0,-0.1 0.1,-0.4 0.4,-0.4 h 2.5 c 0.3,0 0.4,0.1 0.4,0.4 v 8.1 c 0,1.4 1,2.5 2.5,2.5 1.4,0 2.5,-1.1 2.5,-2.5 v -8.1 c 0,-0.1 0.1,-0.4 0.4,-0.4 h 2.5 c 0.1,0 0.4,0.1 0.4,0.4 v 8.3 c 0,3.1 -2.5,5.6 -5.7,5.6 -3.1,0 -5.7,-2.5 -5.7,-5.6 v -8.3 z"
       style="fill:#000000;fill-opacity:1;stroke:none;stroke-width:0;stroke-miterlimit:100;stroke-dasharray:none"
       id="path977" />
    <path
       style="fill:#000000;fill-opacity:1;stroke:none;stroke-width:0;stroke-miterlimit:100;stroke-dasharray:none"
       class="st0"
       d="m 127.8,165.2 c 0,-1.1 0.8,-2.1 2,-2.1 1.2,0 2.1,1 2.1,2.1 0,1.1 -1,2.1 -2.1,2.1 -1.1,0 -2,-1 -2,-2.1 z"
       id="path979" />
  </g>
  <rect
     ry="31.167669"
     y="37.51199"
     x="53.49826"
     height="305.09991"
     width="305.00348"
     id="rect1694"
     style="fill:none;fill-opacity:1;stroke:#000000;stroke-width:10.9983;stroke-linecap:square;stroke-linejoin:miter;stroke-miterlimit:100;stroke-dasharray:none;stroke-opacity:1;paint-order:markers stroke fill" />
  <ellipse
     ry="65.217545"
     rx="65.573418"
     cy="190.06194"
     cx="206.00002"
     id="path1696"
     style="fill:none;fill-opacity:1;stroke:#000000;stroke-width:10.9983;stroke-linecap:square;stroke-linejoin:miter;stroke-miterlimit:100;stroke-dasharray:none;stroke-opacity:1;paint-order:markers stroke fill" />
</svg>

<?xml version='1.0' encoding='UTF-8' standalone='no'?>
<!DOCTYPE svg PUBLIC '-//W3C//DTD SVG 1.1//EN' 'http://www.w3.org/Graphics/SVG/1.1/DTD/svg11.dtd'>
<svg version="1.1" id="Layer_1" x="0px" y="0px" viewBox="0 0 208.2 229" style="enable-background:new 0 0 208.2 229;" xmlns="http://www.w3.org/2000/svg">
  <defs></defs>
  <style type="text/css">
    .st0{fill:#CCCCCC;}
  </style>
  <g>
    <g>
      <path class="st0" d="M180.4,5.7c12.2,0,22.1,9.9,22.1,22.1v152.7c0,12.2-9.9,22.1-22.1,22.1H27.8c-12.2,0-22.1-9.9-22.1-22.1V27.8
			c0-12.2,9.9-22.1,22.1-22.1H180.4 M180.4,0H27.8C12.5,0,0,12.5,0,27.8v152.7c0,15.3,12.5,27.8,27.8,27.8h152.7
			c15.3,0,27.8-12.5,27.8-27.8V27.8C208.2,12.5,195.7,0,180.4,0L180.4,0z" style="fill: rgb(0, 0, 0);"></path>
    </g>
    <g>
      <g>
        <path class="st0" d="M104.1,61.2c11.6,0,22.4,4.4,30.4,12.5c8,8,12.5,18.9,12.5,30.4s-4.4,22.4-12.5,30.4
				c-8,8-18.9,12.5-30.4,12.5s-22.4-4.4-30.4-12.5s-12.5-18.9-12.5-30.4s4.4-22.4,12.5-30.4S92.5,61.2,104.1,61.2 M104.1,55.5
				C77,55.5,55.5,77,55.5,104.1s21.5,48.6,48.6,48.6s48.6-21.5,48.6-48.6S131.2,55.5,104.1,55.5L104.1,55.5z" style="fill: rgb(0, 0, 0);"></path>
      </g>
    </g>
    <circle class="st0" cx="104.1" cy="33.3" r="3.5" style="fill: rgb(0, 0, 0);"></circle>
    <g>
      <polygon class="st0" points="156.1,208.2 52,208.2 52,215.1 156.1,215.1 156.1,208.2 		"></polygon>
    </g>
    <g>
      <g>
        <polygon class="st0" points="65.9,215.1 59,215.1 59,229 65.9,229 65.9,215.1 			"></polygon>
      </g>
      <g>
        <polygon class="st0" points="79.8,215.1 72.9,215.1 72.9,229 79.8,229 79.8,215.1 			"></polygon>
      </g>
      <g>
        <polygon class="st0" points="93.7,215.1 86.7,215.1 86.7,229 93.7,229 93.7,215.1 			"></polygon>
      </g>
      <g>
        <polygon class="st0" points="107.6,215.1 100.6,215.1 100.6,229 107.6,229 107.6,215.1 			"></polygon>
      </g>
      <g>
        <polygon class="st0" points="121.4,215.1 114.5,215.1 114.5,229 121.4,229 121.4,215.1 			"></polygon>
      </g>
      <g>
        <polygon class="st0" points="135.3,215.1 128.4,215.1 128.4,229 135.3,229 135.3,215.1 			"></polygon>
      </g>
      <g>
        <polygon class="st0" points="149.2,215.1 142.3,215.1 142.3,229 149.2,229 149.2,215.1 			"></polygon>
      </g>
    </g>
    <g>
      <path class="st0" d="M 77 173.6 C 77 173.5 77.1 173.2 77.4 173.2 L 78 173.2 L 86 180.9 L 86 173.8 C 86 173.7 86.1 173.4 86.4 173.4 L 88.8 173.4 C 88.9 173.4 89.2 173.5 89.2 173.8 L 89.2 187.2 C 89.2 187.3 89.1 187.6 88.8 187.6 L 88.4 187.6 C 88.4 187.6 88.1 187.6 88.1 187.5 L 80.3 179.5 L 80.3 186.9 C 80.3 187 80.2 187.3 79.9 187.3 L 77.5 187.3 C 77.4 187.3 77.1 187.2 77.1 186.9 L 77.1 173.6 L 77 173.6 Z M 128.2 173.7 C 128.2 173.6 128.3 173.3 128.6 173.3 L 131 173.3 C 131.1 173.3 131.4 173.4 131.4 173.7 L 131.4 187 C 131.4 187.1 131.3 187.4 131 187.4 L 128.6 187.4 C 128.5 187.4 128.2 187.3 128.2 187 L 128.2 173.7 Z M 112.1 173.8 C 112.1 173.5 112.2 173.4 112.5 173.4 L 114.9 173.4 C 115.2 173.4 115.3 173.7 115.3 173.8 L 115.3 179.1 L 119.8 173.5 C 119.9 173.4 120.1 173.4 120.2 173.4 L 122.7 173.4 C 123.1 173.4 123.3 173.8 123.1 174.1 L 118.5 180 L 123.5 186.6 C 123.8 186.9 123.5 187.3 123.1 187.3 L 120.3 187.3 C 120.2 187.3 120 187.2 119.9 187.2 L 115.3 180.9 L 115.3 186.9 C 115.3 187.2 115 187.3 114.9 187.3 L 112.5 187.3 C 112.2 187.3 112.1 187 112.1 186.9 L 112.1 173.8 Z M 94.9 173.7 C 94.9 173.6 95 173.3 95.3 173.3 L 97.8 173.3 C 98.1 173.3 98.2 173.4 98.2 173.7 L 98.2 181.8 C 98.2 183.2 99.2 184.3 100.7 184.3 C 102.1 184.3 103.2 183.2 103.2 181.8 L 103.2 173.7 C 103.2 173.6 103.3 173.3 103.6 173.3 L 106.1 173.3 C 106.2 173.3 106.5 173.4 106.5 173.7 L 106.5 182 C 106.5 185.1 104 187.6 100.8 187.6 C 97.7 187.6 95.1 185.1 95.1 182 L 95.1 173.7 L 94.9 173.7 Z" style="fill: rgb(0, 0, 0);"></path>
      <path class="st0" d="M 127.8 165.2 C 127.8 164.1 128.6 163.1 129.8 163.1 C 131 163.1 131.9 164.1 131.9 165.2 C 131.9 166.3 130.9 167.3 129.8 167.3 C 128.7 167.3 127.8 166.3 127.8 165.2 Z" style=""></path>
    </g>
  </g>
</svg>
